X:1
T:O sacrum convivium - Polleri
T:#
%%score [ 1 2 3 ]
L:1/8
Q:1/4=66
M:4/4
K:C
V:1 treble nm="Soprano I" snm="S I"
V:2 treble nm="Soprano ii" snm="S II"
V:3 treble nm="Alto" snm="A"
V:1
!p!"^largo""^Giovanni Battista Polleri\n (1855-1923)""^O sacrum convivium" c2 !>!c2 c2 c2 | %1
w: O sa- crum con-|
 c3 B B2 z2 | d2 !>!d2 d2 d2 | d3 d ^c2 z2 |!mf! (e2 d2) ^c4 | d4 (d2 =c2) |[M:4/4] B4 B4 | %7
w: vi- vi- um,|O sa- crum con-|vi- vi- um,|in * quo|Chri- stus *|su- mi-|
 B2 z2 B2 c2 | d2 (dc) B3 A | B2 z2!pp! B2 c2 | d2 (de) A3 A | B4- B z z2 | z8 | z4 z2!mf! e2 | %14
w: tur, In quo|Chri- stus * su- mi-|tur, In quo|Chri- stus * su- mi-|tur, *||re-|
 d2 c2 B2 d2 | (d2 c)B c2 !>!c2- | c2 c2 B2 B2 | B4 B2 z2 |!p! B2 B2 B2 B2 | c3 c c2 z2 | %20
w: co- li- tur me-|mo\- * ri- a, pas\-|* si- o- nis|e- jus:|mens im- ple- tur|gra- ti- a,|
!<(! d2 d2 d2!<)! d2 | e3 e e z !>!e2- | e2 e2 f2 f2 | f3 e e z!p! !>!c2- | c2 c2 d2 d2 | %25
w: mens im- ple- tur|gra- ti- a, et|* fu- tu- rae|glo- ri- ae no\-|* bis pi- gnus|
 d4 c z z2 | z4 z2 (c2 | B2) A2 G2 e2 | e8- |!mf! e2 f2 g2 z2 |!p! c4 c4 | c4 (f2 e2) | (d6 ed) | %33
w: da- tur,|et|* fu- tu- rae|glo\-|* ri- ae,|no- bis|pi- gnus *|da\- * *|
 d4 z4 |!pp! c4 c4 | c4 (f2 e2) | d8 | !fermata!c8 |] %38
w: tur,|no- bis|pi- gnus *|da-|tur.|
V:2
!p! E2 !>!F2 A2 G2 | F3 F F2 z2 | F2 !>!G2 _B2 A2 | G3 G G2 z2 | z8 |!mf! (A2 G2) (F2 ^F2) | %6
w: O sa- crum con-|vi- vi- um,|O sa- crum con-|vi- vi- um,||in * quo *|
[M:4/4] G2 G2 ^F2 F2 | ^F2 z2 G2 G2 | G2 A2 (G2 ^F)F | ^F2 z2!pp! G2 G2 | A2 (BG) (G2 ^F)F | %11
w: Chri- stus su- mi-|tur, In quo|Chri- stus su\- * mi-|tur, In quo|Chri- stus * su\- * mi-|
 G4- G z z2 | z8 | z4 z2!mf! c2 | B2 A2 ^G2 B2 | (B2 A)^G A2 !>!A2- | A2 A2 A2 A2 | ^G4 G2 z2 | %18
w: tur, *||re-|co- li- tur me-|mo\- * ri- a, pas\-|* si- o- nis|e- jus:|
!p! ^G2 G2 G2 G2 | A3 A A2 z2 |!<(! B2 B2 B2!<)! B2 | c3 c c z !>!c2- | c2 c2 c2 c2 | %23
w: mens im- ple- tur|gra- ti- a,|mens im- ple- tur|gra- ti- a, et|* fu- tu- rae|
 c3 c c z!p! !>!A2- | A2 A2 _A2 A2 | G4 G z (c2 | B2) A2 G2 A2 | G2 F2 E2 c2- | c2 c2 c2 c2 | %29
w: glo- ri- ae no\-|* bis pi- gnus|da- tur, et|* fu- tu- rae|glo- ri- ae, et|* fu- tu- rae|
!mf! c2 c2 c2 z2 |!p! A4 A4 | A4 A4 | (A2 c6) | B4 z4 |!pp! A4 A4 | A4 (B2 c2) | (c4 B2 GF) | %37
w: glo- ri- ae,|no- bis|pi- gnus|da\- *|tur,|no- bis|pi- gnus *|da\- * * *|
 !fermata!E8 |] %38
w: tur.|
V:3
!p! C2 D2 F2 E2 | D3 D D2 z2 | D2 E2 G2 F2 | E3 E E2 z2 | z4!mf! (A2 G2) | (F2 E2) D2 D2 | %6
w: O sa- crum con-|vi- vi- um,|O sa- crum con-|vi- vi- um,|in *|quo * Chri- stus|
[M:4/4] D4 ^D4 | ^D2 z2 E2 E2 | B,2 C2 D3 D | ^D2 z2!pp! E2 E2 | ^F2 (GE) (C2 D)D | %11
w: su- mi-|tur, In quo|Chri- stus su- mi-|tur, In quo|Chri- stus * su\- * mi-|
 G,4- G, z!p! G2 | =F2 E2 D2 F2 | (F2 E)D E2!mf! C2 | D2 D2 E2 E2 | A,3 C A,2 z2 | z2 FE D2 ^D2 | %17
w: tur, * re-|co- li- tur me-|mo\- * ri- a, re-|co- li- tur me-|mo- ri- a,|pas- si- o- nis|
 E4 E2 z2 |!p! E2 D2 C2 B,2 | A,3 A A2 z2 |!<(! G2 F2 E2!<)! D2 | C3 c c z !>!c2- | c2 B2 A2 _A2 | %23
w: e- jus:|mens im- ple- tur|gra- ti- a,|mens im- ple- tur|gra- ti- a, et|* fu- tu- rae|
 G3 G G z!p! !>!A2- | A2 G2 F2 F2 | E4 E z z2 | z8 | z4 z2 (c2 | B2) A2 G2 A2 |!mf! G2 F2 E2 z2 | %30
w: glo- ri- ae no\-|* bis pi- gnus|da- tur,||et|* fu- tu- rae|glo- ri- ae,|
!p! A4 G4 | (F2 E2) (D2 C2) | (F4 ^F4) | G4 z4 |!pp! A4 G4 | (F2 E2) (D2 E2) | (F2 ^F2 G2 G,2) | %37
w: no- bis|pi\- * gnus *|da\- *|tur,|no- bis|pi\- * gnus *|da\- * * *|
 !fermata!C8 |] %38
w: tur.|

